packages/astro-components-stencil/src/icons/directions-railway.svg

<svg xmlns="http://www.w3.org/2000/svg" viewBox="0 0 24 24"><g xmlns="http://www.w3.org/2000/svg" id="directions-railway" fill-rule="nonzero">
            <path d="M4 15.5C4 17.43 5.57 19 7.5 19l-1.14 1.15c-.32.31-.1.85.35.85h10.58c.45 0 .67-.54.35-.85L16.5 19c1.93 0 3.5-1.57 3.5-3.5V5c0-3.5-3.58-4-8-4s-8 .5-8 4v10.5zm8 1.5c-1.1 0-2-.9-2-2s.9-2 2-2 2 .9 2 2-.9 2-2 2zm6-7H6V5h12v5z"/>
        </g></svg>

<svg width="24" height="24" viewBox="0 0 24 24" fill="none" xmlns="http://www.w3.org/2000/svg">
<path fill-rule="evenodd" clip-rule="evenodd" d="M4 15.5C4 17.43 5.57 19 7.5 19L6.36 20.15C6.04 20.46 6.26 21 6.71 21H17.29C17.74 21 17.96 20.46 17.64 20.15L16.5 19C18.43 19 20 17.43 20 15.5V5C20 1.5 16.42 1 12 1C7.58 1 4 1.5 4 5V15.5ZM12 17C10.9 17 10 16.1 10 15C10 13.9 10.9 13 12 13C13.1 13 14 13.9 14 15C14 16.1 13.1 17 12 17ZM6 10H18V5H6V10Z" fill="black"/>
</svg>
